X: 10291
Q: "Maestoso."
M: C
L: 1/8
K: D
d2d2 e2e2 | a2f2 zddc | B2 g4 ec | d2d>d d2d>e |\
f2f>f f2(gf) | fee2 z2ef | g2g>g g2(a>g) | {g}f2f>f f2aa |\
a2fd a2fd | A2A>A A2A>A |
e4 g2ec | d2d2 =c4 |\
d2d2 d2ed | dc c4 za- | a4 ae=fd | e2A>A A2za- |
a4 ae=fd | e2A>A A2zA | d2d>d d2d2 | f8 |\
g4 a2b2 | e2e>e e2z(b | a4) afge | d4 z2A2 |\
d6 d2 | f8 | g4 a2b2 | e6 z(b |\
a4) afge | d2d>d d2 |]


